assets/images/logo-uni-ipam.svg

<svg fill="none" height="37" viewBox="0 0 82 37" width="82" xmlns="http://www.w3.org/2000/svg"><g fill="#001b3c"><path d="m2.77717 5.62465c-.74995 0-1.40616-.26951-1.968627-.80854-.539029-.56247-.808543-1.21868-.808543-1.96863s.269514-1.40616.808543-1.968627c.562467-.562465 1.218677-.8436968 1.968627-.8436968.77339 0 1.4296.2812318 1.96863.8436968.56246.562467.84369 1.218677.84369 1.968627s-.28123 1.40616-.84369 1.96863c-.53903.53903-1.19524.80854-1.96863.80854z"/><path d="m.395328 27.7091v-17.577h4.534872v17.577z"/><path d="m19.718 9.83738c2.3671 0 4.3826.90232 6.0465 2.70682 1.6874 1.7812 2.5311 3.9725 2.5311 6.5739 0 2.6013-.8437 4.8043-2.5311 6.6089-1.6639 1.7811-3.6794 2.6717-6.0465 2.6717-2.4608 0-4.3591-.8554-5.6949-2.5662v10.9692h-4.5349v-26.4722h4.5349v2.0741c1.3358-1.7108 3.2341-2.56622 5.6949-2.56622zm-4.3239 12.86642c.914.914 2.0741 1.371 3.4802 1.371 1.4062 0 2.5663-.457 3.4803-1.371.9374-.9375 1.4061-2.1327 1.4061-3.5857 0-1.4531-.4687-2.6366-1.4061-3.5506-.914-.9374-2.0741-1.4062-3.4803-1.4062-1.4061 0-2.5662.4688-3.4802 1.4062-.914.914-1.371 2.0975-1.371 3.5506 0 1.453.457 2.6482 1.371 3.5857z"/><path d="m46.1262 10.1319h4.5349v17.577h-4.5349v-2.0741c-1.3593 1.7108-3.2693 2.5662-5.7301 2.5662-2.3436 0-4.3591-.8905-6.0465-2.6717-1.664-1.8045-2.496-4.0075-2.496-6.6089s.832-4.7927 2.496-6.5738c1.6874-1.8046 3.7029-2.70688 6.0465-2.70688 2.4608 0 4.3708.85538 5.7301 2.56628zm-8.3667 12.3742c.914.914 2.0741 1.371 3.4803 1.371 1.4061 0 2.5662-.457 3.4802-1.371.9375-.9374 1.4062-2.1327 1.4062-3.5857s-.4687-2.6366-1.4062-3.5506c-.914-.9374-2.0741-1.4061-3.4802-1.4061-1.4062 0-2.5663.4687-3.4803 1.4061-.914.914-1.371 2.0976-1.371 3.5506s.457 2.6483 1.371 3.5857z"/><path d="m74.6449 9.63972c2.0155 0 3.6208.65618 4.8161 1.96858 1.2187 1.3125 1.828 3.0702 1.828 5.2731v10.8275h-4.5349v-10.5111c0-1.0546-.2578-1.8748-.7734-2.4607s-1.2421-.8789-2.1795-.8789c-1.0312 0-1.8397.3398-2.4256 1.0195-.5625.6796-.8437 1.6639-.8437 2.9529v9.8783h-4.5349v-10.5111c0-1.0546-.2578-1.8748-.7734-2.4607s-1.2421-.8789-2.1796-.8789c-1.0077 0-1.8162.3398-2.4256 1.0195-.5859.6796-.8788 1.6639-.8788 2.9529v9.8783h-4.5349v-17.577h4.5349v1.8631c1.0546-1.5702 2.6834-2.35528 4.8864-2.35528 2.1561 0 3.7497.84368 4.7809 2.53108 1.1718-1.6874 2.9178-2.53108 5.238-2.53108z"/><path d="m18.3833 32.9719h62.8097v3.8299h-62.8097z"/></g></svg>

<svg width="82" height="37" viewBox="0 0 82 37" fill="none" xmlns="http://www.w3.org/2000/svg">
<path d="M2.77717 5.62465C2.02722 5.62465 1.37101 5.35514 0.808543 4.81611C0.269514 4.25364 0 3.59743 0 2.84748C0 2.09753 0.269514 1.44132 0.808543 0.878853C1.37101 0.316388 2.02722 0.0351562 2.77717 0.0351562C3.55056 0.0351562 4.20677 0.316388 4.7458 0.878853C5.30826 1.44132 5.58949 2.09753 5.58949 2.84748C5.58949 3.59743 5.30826 4.25364 4.7458 4.81611C4.20677 5.35514 3.55056 5.62465 2.77717 5.62465Z" fill="#001B3C"/>
<path d="M0.395328 27.7091V10.1321H4.9302V27.7091H0.395328Z" fill="#001B3C"/>
<path d="M19.718 9.83738C22.0851 9.83738 24.1006 10.7397 25.7645 12.5442C27.4519 14.3254 28.2956 16.5167 28.2956 19.1181C28.2956 21.7194 27.4519 23.9224 25.7645 25.727C24.1006 27.5081 22.0851 28.3987 19.718 28.3987C17.2572 28.3987 15.3589 27.5433 14.0231 25.8325V36.8017H9.4882V10.3295H14.0231V12.4036C15.3589 10.6928 17.2572 9.83738 19.718 9.83738ZM15.3941 22.7038C16.3081 23.6178 17.4682 24.0748 18.8743 24.0748C20.2805 24.0748 21.4406 23.6178 22.3546 22.7038C23.292 21.7663 23.7607 20.5711 23.7607 19.1181C23.7607 17.665 23.292 16.4815 22.3546 15.5675C21.4406 14.6301 20.2805 14.1613 18.8743 14.1613C17.4682 14.1613 16.3081 14.6301 15.3941 15.5675C14.4801 16.4815 14.0231 17.665 14.0231 19.1181C14.0231 20.5711 14.4801 21.7663 15.3941 22.7038Z" fill="#001B3C"/>
<path d="M46.1262 10.1319H50.6611V27.7089H46.1262V25.6348C44.7669 27.3456 42.8569 28.201 40.3961 28.201C38.0525 28.201 36.037 27.3105 34.3496 25.5293C32.6856 23.7248 31.8536 21.5218 31.8536 18.9204C31.8536 16.319 32.6856 14.1277 34.3496 12.3466C36.037 10.542 38.0525 9.63972 40.3961 9.63972C42.8569 9.63972 44.7669 10.4951 46.1262 12.206V10.1319ZM37.7595 22.5061C38.6735 23.4201 39.8336 23.8771 41.2398 23.8771C42.6459 23.8771 43.806 23.4201 44.72 22.5061C45.6575 21.5687 46.1262 20.3734 46.1262 18.9204C46.1262 17.4674 45.6575 16.2838 44.72 15.3698C43.806 14.4324 42.6459 13.9637 41.2398 13.9637C39.8336 13.9637 38.6735 14.4324 37.7595 15.3698C36.8455 16.2838 36.3885 17.4674 36.3885 18.9204C36.3885 20.3734 36.8455 21.5687 37.7595 22.5061Z" fill="#001B3C"/>
<path d="M74.6449 9.63972C76.6604 9.63972 78.2657 10.2959 79.461 11.6083C80.6797 12.9208 81.289 14.6785 81.289 16.8814V27.7089H76.7541V17.1978C76.7541 16.1432 76.4963 15.323 75.9807 14.7371C75.4651 14.1512 74.7386 13.8582 73.8012 13.8582C72.77 13.8582 71.9615 14.198 71.3756 14.8777C70.8131 15.5573 70.5319 16.5416 70.5319 17.8306V27.7089H65.997V17.1978C65.997 16.1432 65.7392 15.323 65.2236 14.7371C64.708 14.1512 63.9815 13.8582 63.044 13.8582C62.0363 13.8582 61.2278 14.198 60.6184 14.8777C60.0325 15.5573 59.7396 16.5416 59.7396 17.8306V27.7089H55.2047V10.1319H59.7396V11.995C60.7942 10.4248 62.423 9.63972 64.626 9.63972C66.7821 9.63972 68.3757 10.4834 69.4069 12.1708C70.5787 10.4834 72.3247 9.63972 74.6449 9.63972Z" fill="#001B3C"/>
<path d="M18.3833 32.9719L81.193 32.9719V36.8018L18.3833 36.8018V32.9719Z" fill="#001B3C"/>
</svg>
